X:237
T:Boda Hambo for Bb Instruments
M:3/4
L:1/8
K:A
A2 a2 a>g|f>e dc B>A|G>F EG B>G|A>B c/2B/2c/2d/2 e2|\
A2 a2 a>g|f>e dc B>A|G>F EG B>G|A2 A4:: \
e>d c>B A>G|F>E DC B,2|E2 G>E G>B|A>B c/2B/2c/2d/2 e2|\
e>d c>B A>G|F>E DC B,2|E2 G>E G>B|BG A4:|
